X: 1
T: Pols etter V.R.Storsve
S: printed MS of unknown origin
Z: 2008 John Chambers <jc@trillian.mit.edu>
M: 3/4
L: 1/8
K: G
|: "G"g2 (b<g) d>B | "Am"c2 (A<c) e>c | "D7"d2 (A<F) D>F |1,3 "G"G2 D<B, G,2 :|2,4 "G"G2 G4 :|
|: "G"D2 (D<G) B>d | "D7"(dc) (A<F) "G"G>G | "D"d2 (d<f) f>a | "A7"(ag) (e<^c) "D"d>d |
|  "G"B2 (D<G) B>d | "D7"(dc) (A<F) "G"G>G | "Am"(c>e) "G"(dA | "G"G2 G4 :|
